dist/icons/svgs/xmark-outline.svg

<svg xmlns="http://www.w3.org/2000/svg" width="24" height="24" fill="currentcolor" class="icon-xmark-outline" viewBox="0 0 24 24">
  <path d="M18.4766 7.35156L13.7891 12.0391L18.4375 16.6875C18.8281 17.0391 18.8281 17.625 18.4375 17.9766C18.0859 18.3672 17.5 18.3672 17.1484 17.9766L12.4609 13.3281L7.8125 17.9766C7.46094 18.3672 6.875 18.3672 6.52344 17.9766C6.13281 17.625 6.13281 17.0391 6.52344 16.6484L11.1719 12L6.52344 7.35156C6.13281 7 6.13281 6.41406 6.52344 6.02344C6.875 5.67188 7.46094 5.67188 7.85156 6.02344L12.5 10.7109L17.1484 6.0625C17.5 5.67188 18.0859 5.67188 18.4766 6.0625C18.8281 6.41406 18.8281 7 18.4766 7.35156Z"/>
</svg>

<svg xmlns="http://www.w3.org/2000/svg" width="24" height="24" fill="currentColor" class="icon-xmark-outline" viewBox="0 0 24 24">
  <path d="m18.477 7.352-4.688 4.687 4.649 4.649c.39.351.39.937 0 1.289a.856.856 0 0 1-1.29 0l-4.687-4.649-4.648 4.649a.856.856 0 0 1-1.29 0c-.39-.352-.39-.938 0-1.329L11.172 12 6.523 7.352c-.39-.352-.39-.938 0-1.329.352-.351.938-.351 1.329 0l4.648 4.688 4.648-4.648c.352-.391.938-.391 1.329 0a.92.92 0 0 1 0 1.289"/>
</svg>
